assets/icons/traton/calendar_inactive.svg

<svg xmlns="http://www.w3.org/2000/svg" width="32" height="32" viewBox="0 0 32 32" fill="none">
<path d="M7.76166 12.989H5.99736V25.4963L6.74638 26.9753H21.7435L23.7409 28.9734H5.52824L3.99996 25.9763V9.22607L7.76166 12.989ZM27.959 27.549L26.5468 28.9617L3.96875 6.37632L5.38097 4.96363L27.959 27.549ZM11.9896 4.9968H19.9792V2.97339H21.9766V4.9968H26.4405L27.9688 7.99388V24.7422L25.9714 22.7441V12.989H16.2194L14.222 10.9909H25.9714V8.4729L25.2223 6.99485H21.9766V8.9929H19.9792V6.99485H11.9896V8.75778L8.2298 4.9968H9.99216V2.97339H11.9896V4.9968Z" fill="#0E1013" />
</svg>

<svg xmlns="http://www.w3.org/2000/svg" fill="none" viewBox="0 0 32 32"><path fill="#0e1013" d="M7.8 13H6v12.5l.7 1.5h15l2 2H5.5L4 26V9.2zM28 27.5 26.5 29 4 6.4 5.4 5zM12 5h8V3h2v2h4.4L28 8v16.7l-2-2V13h-9.8l-2-2H26V8.5L25.2 7H22v2h-2V7h-8v1.8L8.2 5H10V3h2z"/></svg>
